src/assets/filled/LocationSlash.svg

<svg width="24" height="24" viewBox="0 0 24 24"  xmlns="http://www.w3.org/2000/svg">
<path d="M15.7799 20.98C14.7199 22 13.3599 22.51 11.9999 22.51C10.6399 22.51 9.27989 21.99 8.21989 20.97C7.85989 20.63 7.49989 20.25 7.13989 19.86L20.0399 6.95996C20.2899 7.49996 20.4799 8.06996 20.6199 8.69996C21.7899 13.86 18.6299 18.22 15.7799 20.98Z" />
<path d="M21.7699 2.22988C21.4699 1.92988 20.9799 1.92988 20.6799 2.22988L2.22988 20.6899C1.92988 20.9899 1.92988 21.4799 2.22988 21.7799C2.37988 21.9199 2.56988 21.9999 2.76988 21.9999C2.96988 21.9999 3.15988 21.9199 3.30988 21.7699L21.7699 3.30988C22.0799 3.00988 22.0799 2.52988 21.7699 2.22988Z" />
<path d="M8.85011 10.31C8.85011 8.57 10.2601 7.16 12.0001 7.16C13.3101 7.16 14.4301 7.96 14.9101 9.1L18.8901 5.12C17.1201 2.98 14.4401 2 12.0001 2C10.2301 2 8.34011 2.52 6.76011 3.61C5.18011 4.71 3.90011 6.38 3.38011 8.69C2.54011 12.36 3.90011 15.64 5.79011 18.21L10.7901 13.21C9.65011 12.74 8.85011 11.61 8.85011 10.31Z" />
</svg>

<?xml version="1.0" encoding="UTF-8"?>
<svg width="24" height="24" viewBox="0 0 24 24" xmlns="http://www.w3.org/2000/svg">
 <path d="m15.78 20.98c-1.06 1.02-2.42 1.53-3.78 1.53s-2.72-0.52-3.78-1.54c-0.36-0.34-0.72-0.72-1.08-1.11l12.9-12.9c0.25 0.54 0.44 1.11 0.58 1.74 1.17 5.16-1.99 9.52-4.84 12.28z"/>
 <path d="m21.77 2.2299c-0.3-0.3-0.79-0.3-1.09 0l-18.45 18.46c-0.3 0.3-0.3 0.79 0 1.09 0.15 0.14 0.34 0.22 0.54 0.22s0.39-0.08 0.54-0.23l18.46-18.46c0.31-0.3 0.31-0.78 0-1.08z"/>
 <path d="m8.8501 10.31c0-1.74 1.41-3.15 3.15-3.15 1.31 0 2.43 0.8 2.91 1.94l3.98-3.98c-1.77-2.14-4.45-3.12-6.89-3.12-1.77 0-3.66 0.52-5.24 1.61-1.58 1.1-2.86 2.77-3.38 5.08-0.84 3.67 0.52 6.95 2.41 9.52l5-5c-1.14-0.47-1.94-1.6-1.94-2.9z"/>
</svg>
